icons/op-export-pdf-descr-24.svg

<svg width="24" height="24" viewBox="0 0 24 24" fill="none" xmlns="http://www.w3.org/2000/svg">
<path d="M9.1145 11.9062H14.7939V12.875H9.1145V11.9062ZM9.14504 10H14.8244V11H9.14504V10ZM9.14504 8.09375H14.8244V9.09375H9.14504V8.09375ZM18 7.6875L14.3969 4H6V20H18V7.6875ZM7.40458 18.5625V5.4375H13.8168L16.5954 8.3125V18.5625H7.40458ZM10.2137 14.9062C10.1221 14.8438 10 14.7812 9.87786 14.7188C9.72519 14.6875 9.57252 14.6562 9.38931 14.6562H8.47328V17.5625H8.99237V16.5312H9.38931C9.57252 16.5312 9.72519 16.5 9.84733 16.4688C10 16.4062 10.1221 16.3438 10.2137 16.25C10.3053 16.1875 10.3664 16.0938 10.3969 15.9688C10.458 15.8438 10.4885 15.7188 10.4885 15.5938C10.4885 15.4375 10.458 15.3125 10.4275 15.2188C10.3664 15.0938 10.3053 15 10.2137 14.9062ZM9.9084 15.8125C9.87786 15.875 9.84733 15.9375 9.81679 15.9688C9.75573 16 9.69466 16.0625 9.63359 16.0625C9.57252 16.0938 9.48092 16.125 9.38931 16.125H8.99237V15.0625H9.38931C9.48092 15.0625 9.57252 15.0938 9.63359 15.0938C9.69466 15.125 9.75573 15.1562 9.81679 15.2188C9.84733 15.25 9.87786 15.3125 9.9084 15.375C9.93893 15.4375 9.93893 15.5 9.93893 15.5625C9.93893 15.6562 9.93893 15.7188 9.9084 15.8125ZM12.9924 15.0625C12.8702 14.9375 12.7176 14.8438 12.5344 14.75C12.3817 14.6875 12.1679 14.6562 11.9542 14.6562H10.8855V17.5625H11.9542C12.1679 17.5625 12.3817 17.5 12.5344 17.4375C12.7176 17.375 12.8702 17.2812 12.9924 17.1562C13.1145 17.0312 13.2366 16.875 13.2977 16.6875C13.3588 16.5 13.3893 16.3125 13.3893 16.0938C13.3893 15.9062 13.3588 15.6875 13.2977 15.5312C13.2366 15.3438 13.1145 15.1875 12.9924 15.0625ZM12.7786 16.5312C12.7481 16.6562 12.687 16.75 12.626 16.8438C12.5344 16.9375 12.4427 17 12.3206 17.0625C12.229 17.0938 12.1069 17.125 11.9542 17.125H11.4046V15.0938H11.9542C12.1069 15.0938 12.229 15.0938 12.3206 15.1562C12.4427 15.1875 12.5344 15.2812 12.626 15.3438C12.687 15.4375 12.7481 15.5625 12.7786 15.6875C12.8397 15.8125 12.8702 15.9375 12.8702 16.0938C12.8702 16.25 12.8397 16.4062 12.7786 16.5312ZM15.5878 15.0938V14.6562H13.8168V17.5625H14.3359V16.375H15.4046V15.9375H14.3359V15.0938H15.5878Z" fill="black"/>
</svg>

<svg xmlns="http://www.w3.org/2000/svg" width="24" height="24" viewBox="0 0 24 24"><path d="M9.114 11.906h5.68v.969h-5.68v-.969ZM9.145 10h5.679v1H9.145v-1Zm0-1.906h5.679v1H9.145v-1ZM18 7.688 14.397 4H6v16h12V7.688ZM7.405 18.562V5.438h6.412l2.778 2.874v10.25h-9.19Zm2.809-3.656a3.372 3.372 0 0 0-.336-.187c-.153-.031-.305-.063-.489-.063h-.916v2.906h.519v-1.031h.397c.184 0 .336-.031.458-.062.153-.063.275-.125.367-.219a.458.458 0 0 0 .183-.281.85.85 0 0 0 .092-.375c0-.156-.031-.282-.061-.375a1.164 1.164 0 0 0-.214-.313Zm-.306.906a.678.678 0 0 1-.091.157c-.061.031-.122.093-.183.093a.556.556 0 0 1-.245.063h-.397v-1.063h.397c.092 0 .184.032.245.032a.622.622 0 0 1 .183.125c.03.031.061.093.091.156.031.063.031.125.031.187 0 .094 0 .157-.031.25Zm3.084-.75a1.722 1.722 0 0 0-.458-.312 1.625 1.625 0 0 0-.58-.094h-1.068v2.906h1.068c.214 0 .428-.062.58-.124.184-.063.336-.157.458-.282.122-.125.245-.281.306-.468.061-.188.091-.376.091-.594 0-.188-.03-.406-.091-.563a1.253 1.253 0 0 0-.306-.469Zm-.213 1.469c-.031.125-.092.219-.153.313a1.086 1.086 0 0 1-.305.218 1.099 1.099 0 0 1-.367.063h-.549v-2.031h.549c.153 0 .275 0 .367.062.122.032.213.125.305.188.061.094.122.218.153.344a.88.88 0 0 1 .091.406c0 .156-.03.312-.091.437Zm2.809-1.437v-.438h-1.771v2.906h.519v-1.187h1.069v-.437h-1.069v-.844h1.252Z"/></svg>
